; generated by PrusaSlicer 2.3.0-alpha0 on 2020-10-02 at 23:23:38 UTC

; QUALITY

; external perimeters extrusion width = 0.45mm
; perimeters extrusion width = 0.45mm
; infill extrusion width = 0.45mm
; solid infill extrusion width = 0.45mm
; top infill extrusion width = 0.40mm
; support material extrusion width = 0.40mm

; external perimeters extrusion width = 0.45mm
; perimeters extrusion width = 0.45mm
; infill extrusion width = 0.45mm
; solid infill extrusion width = 0.45mm
; top infill extrusion width = 0.40mm
; support material extrusion width = 0.40mm

; external perimeters extrusion width = 0.45mm
; perimeters extrusion width = 0.45mm
; infill extrusion width = 0.45mm
; solid infill extrusion width = 0.45mm
; top infill extrusion width = 0.40mm
; support material extrusion width = 0.40mm

M73 P0 R7
M73 Q0 S7
M201 X1000 Y1000 Z1000 E5000 ; sets maximum accelerations, mm/sec^2
M203 X200 Y200 Z12 E120 ; sets maximum feedrates, mm/sec
M204 P1250 R1250 T1250 ; sets acceleration (P, T) and retract acceleration (R), mm/sec^2
M205 X8.00 Y8.00 Z0.40 E4.50 ; sets the jerk limits, mm/sec
M205 S0 T0 ; sets the minimum extruding and travel feed rate, mm/sec
M107 ; disable fan
M862.3 P "MK3S" ; printer model check
M862.1 P0.4 ; nozzle diameter check
M115 U3.8.1 ; tell printer latest fw version
G90 ; use absolute coordinates
M83 ; extruder relative mode

M302 S0 ; cold extrusion

G92 E0.0 ; reset extrusion distance
G1 Y-3.0 F1000.0 ; go outside print area
G1 E2 F1000 ; de-retract and push ooze
M73 Q0 S7
M73 P0 R7
G1 X20.0 E6  F1000.0 ; fat 20mm intro line @ 0.30
G1 X60.0 E3.2  F1000.0 ; thin +40mm intro line @ 0.08
G1 X100.0 E6  F1000.0 ; fat +40mm intro line @ 0.15
G1 E-0.8 F2100; retract to avoid stringing
G1 X99.0 E0 F1000.0 ; -1mm intro line @ 0.00
G1 X110.0 E0 F1000.0 ; +10mm intro line @ 0.00
G1 E0.6 F1500; de-retract
G92 E0.0 ; reset extrusion distance
; Final print adjustments
M221 S95
G21 ; set units to millimeters
G90 ; use absolute coordinates
M83 ; use relative distances for extrusion
M900 K0.09 ; Filament gcode"
;BEFORE_LAYER_CHANGE
G92 E0.0
;0.2
;LAYER:0
G1 E-0.40000 F4800.00000 ; retract
G1 Z0.300 F12000.000 ; lift Z
;AFTER_LAYER_CHANGE
;0.2
; printing object Shape-Box id:0 copy 0
G1 X105.000 Y105.000 ; move to first perimeter point
G1 Z0.200 ; restore layer Z
G1 E0.40000 F1500.00000 ; unretract
M204 S1000 ; adjust acceleration
G1 F900
G1 X145.000 Y105.000 E1.68218 ; perimeter
M204 S1250 ; adjust acceleration
; stop printing object Shape-Box id:0 copy 0
M106 S255 ; enable fan
;BEFORE_LAYER_CHANGE
G92 E0.0
;0.4
;LAYER:1
G1 E-0.40000 F4800.00000 ; retract
G1 Z0.500 F12000.000 ; lift Z
;AFTER_LAYER_CHANGE
;0.4
; printing object Shape-Box id:0 copy 0
G1 X105.000 Y105.000 ; move to first perimeter point
G1 Z0.400 ; restore layer Z
G1 E0.40000 F1500.00000 ; unretract
M204 S800 ; adjust acceleration
G1 F900
G1 X145.000 Y105.000 E1.68218 ; perimeter
M204 S1250 ; adjust acceleration
; stop printing object Shape-Box id:0 copy 0
;BEFORE_LAYER_CHANGE
G92 E0.0
;0.6
;LAYER:2
G1 E-0.40000 F4800.00000 ; retract
G1 Z0.700 F12000.000 ; lift Z
;AFTER_LAYER_CHANGE
;0.6
; printing object Shape-Box id:0 copy 0
G1 X105.000 Y105.000 ; move to first perimeter point
G1 Z0.600 ; restore layer Z
G1 E0.40000 F1500.00000 ; unretract
M204 S800 ; adjust acceleration
G1 F900
G1 X145.000 Y105.000 E1.68218 ; perimeter
M204 S1250 ; adjust acceleration
; stop printing object Shape-Box id:0 copy 0
;BEFORE_LAYER_CHANGE
G92 E0.0
;0.8
;LAYER:3
G1 E-0.40000 F4800.00000 ; retract
G1 Z0.900 F12000.000 ; lift Z
;AFTER_LAYER_CHANGE
;0.8
; printing object Shape-Box id:0 copy 0
G1 X105.000 Y105.000 ; move to first perimeter point
G1 Z0.800 ; restore layer Z
G1 E0.40000 F1500.00000 ; unretract
M204 S800 ; adjust acceleration
G1 F900
G1 X145.000 Y105.000 E1.68218 ; perimeter
M204 S1250 ; adjust acceleration
; stop printing object Shape-Box id:0 copy 0
;BEFORE_LAYER_CHANGE
G92 E0.0
;1
;LAYER:4
G1 E-0.40000 F4800.00000 ; retract
G1 Z1.100 F12000.000 ; lift Z
;AFTER_LAYER_CHANGE
;1
; printing object Shape-Box id:0 copy 0
G1 X105.000 Y105.000 ; move to first perimeter point
G1 Z1.000 ; restore layer Z
G1 E0.40000 F1500.00000 ; unretract
M204 S800 ; adjust acceleration
G1 F900
G1 X145.000 Y105.000 E1.68218 ; perimeter
M204 S1250 ; adjust acceleration
; stop printing object Shape-Box id:0 copy 0
;BEFORE_LAYER_CHANGE
G92 E0.0
;1.2
;LAYER:5
G1 E-0.40000 F4800.00000 ; retract
G1 Z1.300 F12000.000 ; lift Z
;AFTER_LAYER_CHANGE
;1.2
; printing object Shape-Box id:0 copy 0
G1 X105.000 Y105.000 ; move to first perimeter point
G1 Z1.200 ; restore layer Z
G1 E0.40000 F1500.00000 ; unretract
M204 S800 ; adjust acceleration
G1 F900
G1 X145.000 Y105.000 E1.68218 ; perimeter
M204 S1250 ; adjust acceleration
; stop printing object Shape-Box id:0 copy 0
;BEFORE_LAYER_CHANGE
G92 E0.0
;1.4
;LAYER:6
G1 E-0.40000 F4800.00000 ; retract
G1 Z1.500 F12000.000 ; lift Z
;AFTER_LAYER_CHANGE
;1.4
; printing object Shape-Box id:0 copy 0
G1 X105.000 Y105.000 ; move to first perimeter point
G1 Z1.400 ; restore layer Z
G1 E0.40000 F1500.00000 ; unretract
M204 S800 ; adjust acceleration
G1 F900
G1 X145.000 Y105.000 E1.68218 ; perimeter
M204 S1250 ; adjust acceleration
; stop printing object Shape-Box id:0 copy 0
;BEFORE_LAYER_CHANGE
G92 E0.0
;1.6
;LAYER:7
G1 E-0.40000 F4800.00000 ; retract
G1 Z1.700 F12000.000 ; lift Z
;AFTER_LAYER_CHANGE
;1.6
; printing object Shape-Box id:0 copy 0
G1 X105.000 Y105.000 ; move to first perimeter point
G1 Z1.600 ; restore layer Z
G1 E0.40000 F1500.00000 ; unretract
M204 S800 ; adjust acceleration
G1 F900
G1 X145.000 Y105.000 E1.68218 ; perimeter
M204 S1250 ; adjust acceleration
; stop printing object Shape-Box id:0 copy 0
;BEFORE_LAYER_CHANGE
G92 E0.0
;1.8
;LAYER:8
G1 E-0.40000 F4800.00000 ; retract
G1 Z1.900 F12000.000 ; lift Z
;AFTER_LAYER_CHANGE
;1.8
; printing object Shape-Box id:0 copy 0
G1 X105.000 Y105.000 ; move to first perimeter point
G1 Z1.800 ; restore layer Z
G1 E0.40000 F1500.00000 ; unretract
M204 S800 ; adjust acceleration
G1 F900
G1 X145.000 Y105.000 E1.68218 ; perimeter
M204 S1250 ; adjust acceleration
; stop printing object Shape-Box id:0 copy 0
;BEFORE_LAYER_CHANGE
G92 E0.0
;2
;LAYER:9
G1 E-0.40000 F4800.00000 ; retract
G1 Z2.100 F12000.000 ; lift Z
;AFTER_LAYER_CHANGE
;2
; printing object Shape-Box id:0 copy 0
G1 X105.000 Y105.000 ; move to first perimeter point
G1 Z2.000 ; restore layer Z
G1 E0.40000 F1500.00000 ; unretract
M204 S800 ; adjust acceleration
G1 F900
G1 X145.000 Y105.000 E1.68218 ; perimeter
M204 S1250 ; adjust acceleration
; stop printing object Shape-Box id:0 copy 0
;BEFORE_LAYER_CHANGE
G92 E0.0
;2.2
;LAYER:10
G1 E-0.40000 F4800.00000 ; retract
G1 Z2.300 F12000.000 ; lift Z
;AFTER_LAYER_CHANGE
;2.2
; printing object Shape-Box id:0 copy 0
G1 X105.000 Y105.000 ; move to first perimeter point
G1 Z2.200 ; restore layer Z
G1 E0.40000 F1500.00000 ; unretract
M204 S800 ; adjust acceleration
G1 F900
G1 X145.000 Y105.000 E1.68218 ; perimeter
M204 S1250 ; adjust acceleration
; stop printing object Shape-Box id:0 copy 0
;BEFORE_LAYER_CHANGE
G92 E0.0
;2.4
;LAYER:11
G1 E-0.40000 F4800.00000 ; retract
G1 Z2.500 F12000.000 ; lift Z
;AFTER_LAYER_CHANGE
;2.4
; printing object Shape-Box id:0 copy 0
G1 X105.000 Y105.000 ; move to first perimeter point
G1 Z2.400 ; restore layer Z
G1 E0.40000 F1500.00000 ; unretract
M204 S800 ; adjust acceleration
G1 F900
G1 X145.000 Y105.000 E1.68218 ; perimeter
M204 S1250 ; adjust acceleration
; stop printing object Shape-Box id:0 copy 0
;BEFORE_LAYER_CHANGE
G92 E0.0
;2.6
;LAYER:12
G1 E-0.40000 F4800.00000 ; retract
G1 Z2.700 F12000.000 ; lift Z
;AFTER_LAYER_CHANGE
;2.6
; printing object Shape-Box id:0 copy 0
G1 X105.000 Y105.000 ; move to first perimeter point
G1 Z2.600 ; restore layer Z
G1 E0.40000 F1500.00000 ; unretract
M204 S800 ; adjust acceleration
G1 F900
G1 X145.000 Y105.000 E1.68218 ; perimeter
M204 S1250 ; adjust acceleration
; stop printing object Shape-Box id:0 copy 0
;BEFORE_LAYER_CHANGE
G92 E0.0
;2.8
;LAYER:13
G1 E-0.40000 F4800.00000 ; retract
G1 Z2.900 F12000.000 ; lift Z
;AFTER_LAYER_CHANGE
;2.8
; printing object Shape-Box id:0 copy 0
G1 X105.000 Y105.000 ; move to first perimeter point
G1 Z2.800 ; restore layer Z
G1 E0.40000 F1500.00000 ; unretract
M204 S800 ; adjust acceleration
G1 F900
G1 X145.000 Y105.000 E1.68218 ; perimeter
M204 S1250 ; adjust acceleration
; stop printing object Shape-Box id:0 copy 0
;BEFORE_LAYER_CHANGE
G92 E0.0
;3
;LAYER:14
G1 E-0.40000 F4800.00000 ; retract
G1 Z3.100 F12000.000 ; lift Z
;AFTER_LAYER_CHANGE
;3
; printing object Shape-Box id:0 copy 0
G1 X105.000 Y105.000 ; move to first perimeter point
G1 Z3.000 ; restore layer Z
G1 E0.40000 F1500.00000 ; unretract
M204 S800 ; adjust acceleration
G1 F900
G1 X145.000 Y105.000 E1.68218 ; perimeter
M204 S1250 ; adjust acceleration
; stop printing object Shape-Box id:0 copy 0
;BEFORE_LAYER_CHANGE
G92 E0.0
;3.2
;LAYER:15
G1 E-0.40000 F4800.00000 ; retract
G1 Z3.300 F12000.000 ; lift Z
;AFTER_LAYER_CHANGE
;3.2
; printing object Shape-Box id:0 copy 0
G1 X105.000 Y105.000 ; move to first perimeter point
G1 Z3.200 ; restore layer Z
G1 E0.40000 F1500.00000 ; unretract
M204 S800 ; adjust acceleration
G1 F900
G1 X145.000 Y105.000 E1.68218 ; perimeter
M204 S1250 ; adjust acceleration
; stop printing object Shape-Box id:0 copy 0
;BEFORE_LAYER_CHANGE
G92 E0.0
;3.4
;LAYER:16
G1 E-0.40000 F4800.00000 ; retract
M73 Q14 S6
G1 Z3.500 F12000.000 ; lift Z
;AFTER_LAYER_CHANGE
;3.4
; printing object Shape-Box id:0 copy 0
G1 X105.000 Y105.000 ; move to first perimeter point
G1 Z3.400 ; restore layer Z
G1 E0.40000 F1500.00000 ; unretract
M204 S800 ; adjust acceleration
G1 F900
G1 X145.000 Y105.000 E1.68218 ; perimeter
M73 P15 R6
M204 S1250 ; adjust acceleration
; stop printing object Shape-Box id:0 copy 0
;BEFORE_LAYER_CHANGE
G92 E0.0
;3.6
;LAYER:17
G1 E-0.40000 F4800.00000 ; retract
G1 Z3.700 F12000.000 ; lift Z
;AFTER_LAYER_CHANGE
;3.6
; printing object Shape-Box id:0 copy 0
G1 X105.000 Y105.000 ; move to first perimeter point
G1 Z3.600 ; restore layer Z
G1 E0.40000 F1500.00000 ; unretract
M204 S800 ; adjust acceleration
G1 F900
G1 X145.000 Y105.000 E1.68218 ; perimeter
M204 S1250 ; adjust acceleration
; stop printing object Shape-Box id:0 copy 0
;BEFORE_LAYER_CHANGE
G92 E0.0
;3.8
;LAYER:18
G1 E-0.40000 F4800.00000 ; retract
G1 Z3.900 F12000.000 ; lift Z
;AFTER_LAYER_CHANGE
;3.8
; printing object Shape-Box id:0 copy 0
G1 X105.000 Y105.000 ; move to first perimeter point
G1 Z3.800 ; restore layer Z
G1 E0.40000 F1500.00000 ; unretract
M204 S800 ; adjust acceleration
G1 F900
G1 X145.000 Y105.000 E1.68218 ; perimeter
M204 S1250 ; adjust acceleration
; stop printing object Shape-Box id:0 copy 0
;BEFORE_LAYER_CHANGE
G92 E0.0
;4
;LAYER:19
G1 E-0.40000 F4800.00000 ; retract
G1 Z4.100 F12000.000 ; lift Z
;AFTER_LAYER_CHANGE
;4
; printing object Shape-Box id:0 copy 0
G1 X105.000 Y105.000 ; move to first perimeter point
G1 Z4.000 ; restore layer Z
G1 E0.40000 F1500.00000 ; unretract
M204 S800 ; adjust acceleration
G1 F900
G1 X145.000 Y105.000 E1.68218 ; perimeter
M204 S1250 ; adjust acceleration
; stop printing object Shape-Box id:0 copy 0
;BEFORE_LAYER_CHANGE
G92 E0.0
;4.2
;LAYER:20
G1 E-0.40000 F4800.00000 ; retract
G1 Z4.300 F12000.000 ; lift Z
;AFTER_LAYER_CHANGE
;4.2
; printing object Shape-Box id:0 copy 0
G1 X105.000 Y105.000 ; move to first perimeter point
G1 Z4.200 ; restore layer Z
G1 E0.40000 F1500.00000 ; unretract
M204 S800 ; adjust acceleration
G1 F900
G1 X145.000 Y105.000 E1.68218 ; perimeter
M204 S1250 ; adjust acceleration
; stop printing object Shape-Box id:0 copy 0
;BEFORE_LAYER_CHANGE
G92 E0.0
;4.4
;LAYER:21
G1 E-0.40000 F4800.00000 ; retract
G1 Z4.500 F12000.000 ; lift Z
;AFTER_LAYER_CHANGE
;4.4
; printing object Shape-Box id:0 copy 0
G1 X105.000 Y105.000 ; move to first perimeter point
G1 Z4.400 ; restore layer Z
G1 E0.40000 F1500.00000 ; unretract
M204 S800 ; adjust acceleration
G1 F900
G1 X145.000 Y105.000 E1.68218 ; perimeter
M204 S1250 ; adjust acceleration
; stop printing object Shape-Box id:0 copy 0
;BEFORE_LAYER_CHANGE
G92 E0.0
;4.6
;LAYER:22
G1 E-0.40000 F4800.00000 ; retract
G1 Z4.700 F12000.000 ; lift Z
;AFTER_LAYER_CHANGE
;4.6
; printing object Shape-Box id:0 copy 0
G1 X105.000 Y105.000 ; move to first perimeter point
G1 Z4.600 ; restore layer Z
G1 E0.40000 F1500.00000 ; unretract
M204 S800 ; adjust acceleration
G1 F900
G1 X145.000 Y105.000 E1.68218 ; perimeter
M204 S1250 ; adjust acceleration
; stop printing object Shape-Box id:0 copy 0
;BEFORE_LAYER_CHANGE
G92 E0.0
;4.8
;LAYER:23
G1 E-0.40000 F4800.00000 ; retract
G1 Z4.900 F12000.000 ; lift Z
;AFTER_LAYER_CHANGE
;4.8
; printing object Shape-Box id:0 copy 0
G1 X105.000 Y105.000 ; move to first perimeter point
G1 Z4.800 ; restore layer Z
G1 E0.40000 F1500.00000 ; unretract
M204 S800 ; adjust acceleration
G1 F900
G1 X145.000 Y105.000 E1.68218 ; perimeter
M204 S1250 ; adjust acceleration
; stop printing object Shape-Box id:0 copy 0
;BEFORE_LAYER_CHANGE
G92 E0.0
;5
;LAYER:24
G1 E-0.40000 F4800.00000 ; retract
G1 Z5.100 F12000.000 ; lift Z
;AFTER_LAYER_CHANGE
;5
; printing object Shape-Box id:0 copy 0
G1 X105.000 Y105.000 ; move to first perimeter point
G1 Z5.000 ; restore layer Z
G1 E0.40000 F1500.00000 ; unretract
M204 S800 ; adjust acceleration
G1 F900
G1 X145.000 Y105.000 E1.68218 ; perimeter
M204 S1250 ; adjust acceleration
; stop printing object Shape-Box id:0 copy 0
;BEFORE_LAYER_CHANGE
G92 E0.0
;5.2
;LAYER:25
G1 E-0.40000 F4800.00000 ; retract
G1 Z5.300 F12000.000 ; lift Z
;AFTER_LAYER_CHANGE
;5.2
; printing object Shape-Box id:0 copy 0
G1 X105.000 Y105.000 ; move to first perimeter point
G1 Z5.200 ; restore layer Z
G1 E0.40000 F1500.00000 ; unretract
M204 S800 ; adjust acceleration
G1 F900
G1 X145.000 Y105.000 E1.68218 ; perimeter
M204 S1250 ; adjust acceleration
; stop printing object Shape-Box id:0 copy 0
;BEFORE_LAYER_CHANGE
G92 E0.0
;5.4
;LAYER:26
G1 E-0.40000 F4800.00000 ; retract
G1 Z5.500 F12000.000 ; lift Z
;AFTER_LAYER_CHANGE
;5.4
; printing object Shape-Box id:0 copy 0
G1 X105.000 Y105.000 ; move to first perimeter point
G1 Z5.400 ; restore layer Z
G1 E0.40000 F1500.00000 ; unretract
M204 S800 ; adjust acceleration
G1 F900
G1 X145.000 Y105.000 E1.68218 ; perimeter
M204 S1250 ; adjust acceleration
; stop printing object Shape-Box id:0 copy 0
;BEFORE_LAYER_CHANGE
G92 E0.0
;5.6
;LAYER:27
G1 E-0.40000 F4800.00000 ; retract
G1 Z5.700 F12000.000 ; lift Z
;AFTER_LAYER_CHANGE
;5.6
; printing object Shape-Box id:0 copy 0
G1 X105.000 Y105.000 ; move to first perimeter point
G1 Z5.600 ; restore layer Z
G1 E0.40000 F1500.00000 ; unretract
M204 S800 ; adjust acceleration
G1 F900
G1 X145.000 Y105.000 E1.68218 ; perimeter
M204 S1250 ; adjust acceleration
; stop printing object Shape-Box id:0 copy 0
;BEFORE_LAYER_CHANGE
G92 E0.0
;5.8
;LAYER:28
G1 E-0.40000 F4800.00000 ; retract
G1 Z5.900 F12000.000 ; lift Z
;AFTER_LAYER_CHANGE
;5.8
; printing object Shape-Box id:0 copy 0
G1 X105.000 Y105.000 ; move to first perimeter point
G1 Z5.800 ; restore layer Z
G1 E0.40000 F1500.00000 ; unretract
M204 S800 ; adjust acceleration
G1 F900
G1 X145.000 Y105.000 E1.68218 ; perimeter
M204 S1250 ; adjust acceleration
; stop printing object Shape-Box id:0 copy 0
;BEFORE_LAYER_CHANGE
G92 E0.0
;6
;LAYER:29
G1 E-0.40000 F4800.00000 ; retract
G1 Z6.100 F12000.000 ; lift Z
;AFTER_LAYER_CHANGE
;6
; printing object Shape-Box id:0 copy 0
G1 X105.000 Y105.000 ; move to first perimeter point
G1 Z6.000 ; restore layer Z
G1 E0.40000 F1500.00000 ; unretract
M204 S800 ; adjust acceleration
G1 F900
G1 X145.000 Y105.000 E1.68218 ; perimeter
M204 S1250 ; adjust acceleration
; stop printing object Shape-Box id:0 copy 0
;BEFORE_LAYER_CHANGE
G92 E0.0
;6.2
;LAYER:30
G1 E-0.40000 F4800.00000 ; retract
G1 Z6.300 F12000.000 ; lift Z
;AFTER_LAYER_CHANGE
;6.2
; printing object Shape-Box id:0 copy 0
G1 X105.000 Y105.000 ; move to first perimeter point
G1 Z6.200 ; restore layer Z
G1 E0.40000 F1500.00000 ; unretract
M204 S800 ; adjust acceleration
G1 F900
G1 X145.000 Y105.000 E1.68218 ; perimeter
